X:1
T:Se nasce'in Cielo
T:Se nasce'in Cielo
T:Giovanni Ghizzolo
C:Giovanni Ghizzolo
%%score [ 1 2 ] { 3 | 4 }
L:1/8
Q:1/4=120
M:3/4
K:C
V:1 treble nm="Soprano" snm="S"
V:2 bass nm="Bass" snm="B"
V:3 treble nm="MusicXML Part"
V:4 bass 
V:1
"^Source: Madrigali et Arie---Libro terzo---Venetia---A.Raverij---1609.\nEditor: André Vierendeels (26/12/09)\nContinuo: André Vierendeels" Bc c2 de | %1
w: Se _ nas- ce'in- *|
w: Brie- * ve Ba- *|
w: Nas- * ce vi- *|
w: A- * mor ci'af- *|
 e4 e2"^ARIA" | de c2 AB | d4 d2 | de d2 ^cd | d4 d2 | cd c2 Bc | c4 c2 :: e4 dc | d4 d2 | c4 BA | %11
w: Cie- lo|il _ Dio di _|De- lo|al _ l'oc- ci- *|den- te|gion- * ge re- *|pen- te.|Se si fa|not- te|se- gue l'Au-|
w: le- no|du- * ra'il se- *|re- no|o- * gni tem- *|pes- ta|al _ fin s'ar- *|res- ta,|ver- deg- gia'il|ra- mo|e poi si|
w: ci- na|al _ fior l'as- *|pi- na|se- * gui- ta'l _|pian- to|al _ ri- so'al _|can- to,|sol alt' A-|mo- re|es- ta- t'e|
w: flig- ge|e _ ci traf- *|fig- ge|se _ nas- c'in- *|dor- no|se _ mor- t'il _|gior- no,|in o- gni|tem- po|A- mor *|
 B4 B2 | AB A3 G | G4 G2 :: EF G3 A | A6 | G6 |] %17
w: ro- ra|el _ Ciel' in-|do- ra,|el _ Ciel' in-|do-|ra.|
w: spo- glia|d'o- * gni tua|fo- glia,|d'o- * gni tua|fo-|glia.|
w: ver- no|du- * ra'in e-|ter- no,|du- * ra'in e-|ter-|no.|
w: se- gue|e _ ci per-|se- gue,|e _ ci per-|se-|gue.|
V:2
 G,2 E,2 D,2 | C,4 C,2 | D,2 E,2 ^F,2 | G,4 G,2 | ^F,2 G,2 A,2 | D,4 D,2 | E,2 F,2 G,2 | C,4 C,2 :: %8
w: Se nas- ce'in|Cie- lo|il Dio di|De- lo|al- l'oc- ci-|den- te|gion- ge re-|pen- te.|
w: Brie- ve Ba-|le- no|du- ra'il se-|re- no|o- gni tem-|pes- ta|al fin- s'ar-|res- ta,|
w: Nas- ce vi-|ci- na|al fior l'as-|pi- na|se- gui- ta'l|pian- to|al ri- so'al|can- to,|
w: A- mor ci'af-|flig- ge|e ci traf-|fig- ge|se nas- c'in-|dor- no|se mor- t'il|gior- no,|
 C2 B,2 A,2 | G,4 G,2 | A,2 G,2 F,2 | E,4 E,2 | C,2 D,3 D, | G,,4 G,,2 :: A,,2 B,,2 C,2 | D,6 | %16
w: Se si fa|not- te|se- gue l'Au-|ro- ra|el Ciel' in-|do- ra,|el Ciel' in-|do-|
w: ver- deg- gia'il|ra- mo|e poi si|spo- glia|d'o- gnii tua|fo- glia,|d'o- gni tua|fo-|
w: sol alt' A-|mo- re|es- ta- t'e|ver- no|du ra'in e-|ter- no,|du- ra'in e-|ter-|
w: in o- gni|tem- po|A- mor ci|se- gue|e ci per-|se- gue,|e ci per-|se-|
 G,,6 |] %17
w: ra.|
w: glia.|
w: no.|
w: gue.|
V:3
 [DGB]2 [CG]2 [DF]2 | [EG]6 | [FA]2 [Gc]2 [DA]2 | [DGB]6 | [DA]2 [GBd]2 [E^c]2 | [^FA]6 | %6
 [CG]2 [CA]2 [DG]2 | [EG]6 :: [EG]2 G2 [^Fd]2 | [DB]6 | [EA]2 [EB]2 [FA]2 | [E^GB]6 | %12
 [EA]2 [DG]2 [D^F]2 | [DGB]6 :: [CE]2 [DG]2 [EG]2 | [DG]4 [D^FA]2 | [DGB]6 |] %17
V:4
 G,2 E,2 D,2 | C,4 C,2 | D,2 E,2 ^F,2 | G,4 G,2 | ^F,2 G,2 A,2 | D,4 D,2 | E,2 F,2 G,2 | C,4 C,2 :: %8
 C2 B,2 A,2 | G,4 G,2 | A,2 G,2 F,2 | E,4 E,2 | %12
 C,2"^Note: original keys: Ut 1st, Fa 4rth." D,3 D, | G,,4 G,,2 :: A,,2 B,,2 C,2 | D,6 | G,,6 |] %17

